src/assets/IconGavelNoFill.svg

<svg width="22" height="23" viewBox="0 0 22 23" fill="none" xmlns="http://www.w3.org/2000/svg">
<path fill-rule="evenodd" clip-rule="evenodd" d="M1.54541 20.5987C1.40586 20.5987 1.26625 20.5452 1.15977 20.438C0.946743 20.2237 0.946743 19.8763 1.15977 19.6619L10.0346 10.7854L7.9401 8.67783L7.62148 8.9985C7.40852 9.21272 7.06324 9.21272 6.85028 8.9985C6.63725 8.78415 6.63725 8.43679 6.85028 8.22243L7.1689 7.90182L5.83053 6.55512C5.6175 6.34076 5.6175 5.9934 5.83053 5.77904L10.4203 1.16061C10.6334 0.946394 10.9786 0.946531 11.1916 1.16061L12.53 2.50739L12.8485 2.18678C13.0615 1.97263 13.4067 1.97249 13.6198 2.18678C13.8327 2.40113 13.8327 2.74849 13.6198 2.96285L13.3012 3.28339L18.2616 8.27463L18.5802 7.95402C18.7933 7.7398 19.1385 7.73987 19.3515 7.95402C19.5644 8.16838 19.5644 8.51574 19.3515 8.73009L19.0328 9.0507L20.3713 10.3974C20.4735 10.5004 20.531 10.6399 20.531 10.7854C20.531 10.931 20.4735 11.0705 20.3713 11.1735L15.7814 15.7919C15.5684 16.0061 15.2232 16.0061 15.0102 15.7919L13.6717 14.4451L13.3531 14.7657C13.1401 14.98 12.7949 14.98 12.5818 14.7657C12.3689 14.5514 12.3689 14.204 12.5818 13.9897L12.9005 13.6691L10.8059 11.5614L1.93104 20.438C2.64093 19.7237 1.68495 20.5987 1.54541 20.5987ZM14.4428 13.6694L15.3957 14.6282L19.2144 10.7858L18.2615 9.82702L14.4428 13.6694ZM11.1971 10.4026L13.6717 12.8927L17.4904 9.05031L12.5299 4.059L8.71136 7.90143L11.1859 10.3914C11.1878 10.3932 11.1897 10.3951 11.1916 10.3969C11.1934 10.3988 11.1952 10.4007 11.1971 10.4026ZM6.98737 6.16746L7.94018 7.1262L11.7588 3.28377L10.806 2.32504L6.98737 6.16746ZM20.4546 22.3771H8.35228C8.05111 22.3771 7.80692 22.1313 7.80692 21.8283C7.80692 21.5253 8.05111 21.2796 8.35228 21.2796H20.4547C20.7558 21.2796 21 21.5253 21 21.8283C21 22.1313 20.7558 22.3771 20.4546 22.3771ZM17.7313 19.98H11.0754C10.7742 19.98 10.5301 19.7343 10.5301 19.4312C10.5301 19.1282 10.7742 18.8825 11.0754 18.8825H17.7313C18.0325 18.8825 18.2767 19.1282 18.2767 19.4312C18.2767 19.7343 18.0325 19.98 17.7313 19.98Z" fill="#8FA4B5"/>
<path d="M1.15977 20.438L1.08884 20.5085L1.15977 20.438ZM1.15977 19.6619L1.08905 19.5912L1.08884 19.5914L1.15977 19.6619ZM10.0346 10.7854L10.1053 10.8561C10.1443 10.8172 10.1444 10.754 10.1055 10.715L10.0346 10.7854ZM7.9401 8.67783L8.01103 8.60734C7.99226 8.58845 7.96673 8.57783 7.9401 8.57783C7.91347 8.57783 7.88794 8.58845 7.86917 8.60734L7.9401 8.67783ZM7.62148 8.9985L7.6924 9.06901L7.69242 9.06899L7.62148 8.9985ZM6.85028 8.9985L6.77935 9.06899L6.77936 9.06901L6.85028 8.9985ZM6.85028 8.22243L6.92121 8.29292L6.85028 8.22243ZM7.1689 7.90182L7.23983 7.97231C7.27859 7.93331 7.27859 7.87033 7.23983 7.83133L7.1689 7.90182ZM5.83053 6.55512L5.90146 6.48463L5.83053 6.55512ZM5.83053 5.77904L5.90146 5.84954L5.90146 5.84953L5.83053 5.77904ZM10.4203 1.16061L10.3494 1.09009L10.3494 1.09012L10.4203 1.16061ZM11.1916 1.16061L11.2625 1.09012L11.2625 1.09009L11.1916 1.16061ZM12.53 2.50739L12.459 2.57788C12.4778 2.59677 12.5033 2.60739 12.53 2.60739C12.5566 2.60739 12.5821 2.59676 12.6009 2.57787L12.53 2.50739ZM12.8485 2.18678L12.7776 2.11625L12.7776 2.1163L12.8485 2.18678ZM13.6198 2.18678L13.6907 2.1163L13.6907 2.11628L13.6198 2.18678ZM13.6198 2.96285L13.6907 3.03335L13.6907 3.03333L13.6198 2.96285ZM13.3012 3.28339L13.2302 3.21289C13.1915 3.25189 13.1915 3.31488 13.2302 3.35388L13.3012 3.28339ZM18.2616 8.27463L18.1906 8.34512C18.2094 8.36401 18.2349 8.37463 18.2616 8.37463C18.2882 8.37463 18.3137 8.36401 18.3325 8.34512L18.2616 8.27463ZM18.5802 7.95402L18.5093 7.8835L18.5093 7.88353L18.5802 7.95402ZM19.3515 7.95402L19.4224 7.88354L19.4224 7.88351L19.3515 7.95402ZM19.3515 8.73009L19.4224 8.80059L19.4224 8.80057L19.3515 8.73009ZM19.0328 9.0507L18.9619 8.98021C18.9231 9.01921 18.9231 9.08219 18.9619 9.1212L19.0328 9.0507ZM20.3713 10.3974L20.4422 10.3269L20.4422 10.3269L20.3713 10.3974ZM20.3713 11.1735L20.4422 11.244L20.4422 11.2439L20.3713 11.1735ZM15.7814 15.7919L15.8523 15.8624L15.8524 15.8624L15.7814 15.7919ZM15.0102 15.7919L14.9392 15.8624L14.9393 15.8624L15.0102 15.7919ZM13.6717 14.4451L13.7427 14.3746C13.7239 14.3557 13.6983 14.3451 13.6717 14.3451C13.6451 14.3451 13.6196 14.3557 13.6008 14.3746L13.6717 14.4451ZM13.3531 14.7657L13.424 14.8362L13.424 14.8362L13.3531 14.7657ZM12.5818 14.7657L12.5109 14.8362L12.5109 14.8363L12.5818 14.7657ZM12.5818 13.9897L12.5109 13.9192L12.5109 13.9192L12.5818 13.9897ZM12.9005 13.6691L12.9714 13.7396C13.0102 13.7006 13.0102 13.6376 12.9714 13.5986L12.9005 13.6691ZM10.8059 11.5614L10.8768 11.491C10.8581 11.4721 10.8326 11.4615 10.806 11.4614C10.7795 11.4614 10.754 11.4719 10.7352 11.4907L10.8059 11.5614ZM1.93104 20.438L1.86011 20.3675C1.82122 20.4067 1.82137 20.4699 1.86044 20.5088C1.89952 20.5478 1.96275 20.5477 2.00176 20.5087L1.93104 20.438ZM14.4428 13.6694L14.3719 13.5989C14.3332 13.6379 14.3332 13.7009 14.3719 13.7399L14.4428 13.6694ZM15.3957 14.6282L15.3248 14.6987C15.3436 14.7176 15.3691 14.7282 15.3957 14.7282C15.4223 14.7282 15.4479 14.7176 15.4666 14.6987L15.3957 14.6282ZM19.2144 10.7858L19.2853 10.8562C19.3241 10.8172 19.3241 10.7543 19.2853 10.7153L19.2144 10.7858ZM18.2615 9.82702L18.3324 9.75653C18.3137 9.73764 18.2881 9.72702 18.2615 9.72702C18.2349 9.72702 18.2093 9.73764 18.1906 9.75653L18.2615 9.82702ZM11.1971 10.4026L11.1262 10.4731L11.1971 10.4026ZM13.6717 12.8927L13.6008 12.9632C13.6196 12.982 13.6451 12.9927 13.6717 12.9927C13.6983 12.9927 13.7239 12.982 13.7426 12.9632L13.6717 12.8927ZM17.4904 9.05031L17.5613 9.1208C17.6 9.0818 17.6 9.01882 17.5613 8.97982L17.4904 9.05031ZM12.5299 4.059L12.6009 3.98851C12.5821 3.96962 12.5566 3.959 12.5299 3.959C12.5033 3.959 12.4778 3.96962 12.459 3.98851L12.5299 4.059ZM8.71136 7.90143L8.64043 7.83094C8.60167 7.86994 8.60167 7.93292 8.64043 7.97192L8.71136 7.90143ZM11.1859 10.3914L11.115 10.4619L11.1163 10.4632L11.1859 10.3914ZM6.98737 6.16746L6.91644 6.09697C6.87768 6.13598 6.87768 6.19895 6.91644 6.23795L6.98737 6.16746ZM7.94018 7.1262L7.86925 7.19669C7.88802 7.21558 7.91355 7.2262 7.94018 7.2262C7.96681 7.2262 7.99234 7.21558 8.01111 7.19669L7.94018 7.1262ZM11.7588 3.28377L11.8297 3.35426C11.8684 3.31526 11.8684 3.25228 11.8297 3.21328L11.7588 3.28377ZM10.806 2.32504L10.8769 2.25454C10.8581 2.23566 10.8326 2.22504 10.806 2.22504C10.7793 2.22504 10.7538 2.23566 10.735 2.25455L10.806 2.32504ZM1.54541 20.4987C1.43149 20.4987 1.31772 20.4551 1.2307 20.3675L1.08884 20.5085C1.21479 20.6352 1.38024 20.6987 1.54541 20.6987V20.4987ZM1.2307 20.3675C1.05643 20.1922 1.05643 19.9078 1.2307 19.7324L1.08884 19.5914C0.837053 19.8448 0.837053 20.2551 1.08884 20.5085L1.2307 20.3675ZM1.23049 19.7326L10.1053 10.8561L9.96389 10.7147L1.08905 19.5912L1.23049 19.7326ZM10.1055 10.715L8.01103 8.60734L7.86917 8.74832L9.96368 10.8559L10.1055 10.715ZM7.86917 8.60734L7.55054 8.92802L7.69242 9.06899L8.01104 8.74831L7.86917 8.60734ZM7.55056 8.928C7.3767 9.10289 7.09506 9.10289 6.9212 8.928L6.77936 9.06901C7.03142 9.32255 7.44034 9.32255 7.6924 9.06901L7.55056 8.928ZM6.92121 8.92801C6.74694 8.75266 6.74694 8.46828 6.92121 8.29292L6.77935 8.15194C6.52756 8.4053 6.52756 8.81564 6.77935 9.06899L6.92121 8.92801ZM6.92121 8.29292L7.23983 7.97231L7.09797 7.83133L6.77935 8.15194L6.92121 8.29292ZM7.23983 7.83133L5.90146 6.48463L5.7596 6.62561L7.09797 7.97231L7.23983 7.83133ZM5.90146 6.48463C5.72719 6.30927 5.72719 6.02489 5.90146 5.84954L5.7596 5.70855C5.50781 5.96191 5.50781 6.37225 5.7596 6.62561L5.90146 6.48463ZM5.90146 5.84953L10.4912 1.2311L10.3494 1.09012L5.7596 5.70855L5.90146 5.84953ZM10.4912 1.23114C10.6652 1.05624 10.9468 1.05634 11.1207 1.23114L11.2625 1.09009C11.0104 0.836722 10.6016 0.836552 10.3494 1.09009L10.4912 1.23114ZM11.1207 1.2311L12.459 2.57788L12.6009 2.4369L11.2625 1.09012L11.1207 1.2311ZM12.6009 2.57787L12.9194 2.25726L12.7776 2.1163L12.459 2.4369L12.6009 2.57787ZM12.9194 2.2573C13.0934 2.08242 13.375 2.08235 13.5489 2.25728L13.6907 2.11628C13.4385 1.86263 13.0297 1.86283 12.7776 2.11625L12.9194 2.2573ZM13.5488 2.25726C13.7231 2.43262 13.7231 2.71701 13.5488 2.89237L13.6907 3.03333C13.9424 2.77998 13.9424 2.36965 13.6907 2.1163L13.5488 2.25726ZM13.5489 2.89235L13.2302 3.21289L13.3721 3.35389L13.6907 3.03335L13.5489 2.89235ZM13.2302 3.35388L18.1906 8.34512L18.3325 8.20414L13.3721 3.2129L13.2302 3.35388ZM18.3325 8.34512L18.6511 8.02451L18.5093 7.88353L18.1906 8.20414L18.3325 8.34512ZM18.6511 8.02455C18.8251 7.84963 19.1067 7.8497 19.2806 8.02454L19.4224 7.88351C19.1703 7.63005 18.7615 7.62998 18.5093 7.8835L18.6511 8.02455ZM19.2805 8.0245C19.4547 8.19986 19.4547 8.48426 19.2805 8.65962L19.4224 8.80057C19.6741 8.54722 19.6741 8.1369 19.4224 7.88354L19.2805 8.0245ZM19.2805 8.6596L18.9619 8.98021L19.1038 9.12119L19.4224 8.80059L19.2805 8.6596ZM18.9619 9.1212L20.3004 10.4679L20.4422 10.3269L19.1038 8.98021L18.9619 9.1212ZM20.3003 10.4679C20.3839 10.5521 20.431 10.6662 20.431 10.7854H20.631C20.631 10.6135 20.5631 10.4487 20.4422 10.3269L20.3003 10.4679ZM20.431 10.7854C20.431 10.9047 20.3839 11.0188 20.3003 11.103L20.4422 11.2439C20.5631 11.1222 20.631 10.9573 20.631 10.7854H20.431ZM20.3003 11.103L15.7105 15.7214L15.8524 15.8624L20.4422 11.244L20.3003 11.103ZM15.7105 15.7214C15.5366 15.8963 15.255 15.8963 15.0811 15.7214L14.9393 15.8624C15.1914 16.116 15.6002 16.116 15.8523 15.8624L15.7105 15.7214ZM15.0811 15.7214L13.7427 14.3746L13.6008 14.5156L14.9392 15.8624L15.0811 15.7214ZM13.6008 14.3746L13.2822 14.6953L13.424 14.8362L13.7427 14.5156L13.6008 14.3746ZM13.2822 14.6952C13.1083 14.8702 12.8267 14.8702 12.6527 14.6952L12.5109 14.8363C12.763 15.0898 13.1719 15.0899 13.424 14.8362L13.2822 14.6952ZM12.6528 14.6953C12.4786 14.5199 12.4786 14.2355 12.6528 14.0602L12.5109 13.9192C12.2592 14.1726 12.2592 14.5829 12.5109 14.8362L12.6528 14.6953ZM12.6528 14.0602L12.9714 13.7396L12.8296 13.5986L12.5109 13.9192L12.6528 14.0602ZM12.9714 13.5986L10.8768 11.491L10.735 11.6319L12.8296 13.7396L12.9714 13.5986ZM10.7352 11.4907L1.86032 20.3673L2.00176 20.5087L10.8766 11.6322L10.7352 11.4907ZM2.00197 20.5085C2.09088 20.419 2.15446 20.3537 2.19707 20.3081C2.21829 20.2854 2.23512 20.2667 2.24753 20.252C2.25371 20.2446 2.25954 20.2374 2.26454 20.2305C2.26848 20.2251 2.27597 20.2146 2.28157 20.2017C2.28387 20.1964 2.29062 20.1804 2.29064 20.1591C2.29066 20.1318 2.27802 20.0897 2.23426 20.068C2.20317 20.0526 2.17486 20.0582 2.16804 20.0595C2.15743 20.0617 2.14906 20.065 2.14463 20.067C2.12883 20.0738 2.11224 20.0849 2.10106 20.0926C2.07464 20.1108 2.0372 20.1393 1.99565 20.1713C1.9105 20.2371 1.80225 20.3225 1.70582 20.3921C1.65758 20.4269 1.61445 20.4562 1.58026 20.4764C1.56308 20.4866 1.55007 20.4933 1.54102 20.4972C1.52912 20.5023 1.53282 20.4987 1.54541 20.4987V20.6987C1.57543 20.6987 1.60296 20.6883 1.62005 20.6809C1.63999 20.6724 1.66112 20.661 1.68205 20.6486C1.72408 20.6238 1.77299 20.5903 1.8229 20.5542C1.92277 20.4821 2.03531 20.3934 2.11787 20.3297C2.16017 20.297 2.19331 20.2719 2.21449 20.2573C2.22712 20.2486 2.2286 20.2485 2.2239 20.2506C2.22225 20.2513 2.21623 20.2539 2.2075 20.2556C2.20257 20.2566 2.17569 20.2622 2.14557 20.2473C2.10277 20.2261 2.09062 20.1849 2.09064 20.1589C2.09066 20.139 2.09692 20.1248 2.09822 20.1218C2.10181 20.1136 2.10525 20.1095 2.10295 20.1127C2.10171 20.1144 2.0991 20.1177 2.0945 20.1232C2.08536 20.1341 2.07125 20.1498 2.05095 20.1716C2.0105 20.2148 1.94868 20.2784 1.86011 20.3675L2.00197 20.5085ZM14.3719 13.7399L15.3248 14.6987L15.4666 14.5577L14.5138 13.5989L14.3719 13.7399ZM15.4666 14.6987L19.2853 10.8562L19.1434 10.7153L15.3248 14.5577L15.4666 14.6987ZM19.2853 10.7153L18.3324 9.75653L18.1906 9.89751L19.1434 10.8563L19.2853 10.7153ZM18.1906 9.75653L14.3719 13.5989L14.5138 13.7399L18.3324 9.89751L18.1906 9.75653ZM11.1262 10.4731L13.6008 12.9632L13.7426 12.8222L11.268 10.3322L11.1262 10.4731ZM13.7426 12.9632L17.5613 9.1208L17.4194 8.97982L13.6008 12.8222L13.7426 12.9632ZM17.5613 8.97982L12.6009 3.98851L12.459 4.12949L17.4194 9.1208L17.5613 8.97982ZM12.459 3.98851L8.64043 7.83094L8.78229 7.97192L12.6009 4.12949L12.459 3.98851ZM8.64043 7.97192L11.115 10.4619L11.2568 10.3209L8.78229 7.83094L8.64043 7.97192ZM11.1163 10.4632C11.1183 10.4651 11.1195 10.4663 11.1206 10.4674L11.2625 10.3265C11.2599 10.3239 11.2573 10.3214 11.2555 10.3196L11.1163 10.4632ZM11.1206 10.4674C11.1208 10.4676 11.1211 10.4679 11.1221 10.4689C11.1229 10.4698 11.1245 10.4714 11.1262 10.4731L11.268 10.3322C11.2678 10.3319 11.2675 10.3316 11.2665 10.3306C11.2657 10.3298 11.2642 10.3281 11.2625 10.3265L11.1206 10.4674ZM6.91644 6.23795L7.86925 7.19669L8.01111 7.05571L7.0583 6.09697L6.91644 6.23795ZM8.01111 7.19669L11.8297 3.35426L11.6878 3.21328L7.86925 7.05571L8.01111 7.19669ZM11.8297 3.21328L10.8769 2.25454L10.735 2.39553L11.6878 3.35426L11.8297 3.21328ZM10.735 2.25455L6.91644 6.09697L7.0583 6.23795L10.8769 2.39553L10.735 2.25455ZM20.4546 22.2771H8.35228V22.4771H20.4546V22.2771ZM8.35228 22.2771C8.10692 22.2771 7.90692 22.0767 7.90692 21.8283H7.70692C7.70692 22.186 7.99529 22.4771 8.35228 22.4771V22.2771ZM7.90692 21.8283C7.90692 21.5799 8.10692 21.3796 8.35228 21.3796V21.1796C7.99529 21.1796 7.70692 21.4706 7.70692 21.8283H7.90692ZM8.35228 21.3796H20.4547V21.1796H8.35228V21.3796ZM20.4547 21.3796C20.7 21.3796 20.9 21.5799 20.9 21.8283H21.1C21.1 21.4706 20.8117 21.1796 20.4547 21.1796V21.3796ZM20.9 21.8283C20.9 22.0767 20.7 22.2771 20.4546 22.2771V22.4771C20.8116 22.4771 21.1 22.186 21.1 21.8283H20.9ZM17.7313 19.88H11.0754V20.08H17.7313V19.88ZM11.0754 19.88C10.8301 19.88 10.6301 19.6796 10.6301 19.4312H10.4301C10.4301 19.7889 10.7184 20.08 11.0754 20.08V19.88ZM10.6301 19.4312C10.6301 19.1828 10.8301 18.9825 11.0754 18.9825V18.7825C10.7184 18.7825 10.4301 19.0735 10.4301 19.4312H10.6301ZM11.0754 18.9825H17.7313V18.7825H11.0754V18.9825ZM17.7313 18.9825C17.9767 18.9825 18.1767 19.1828 18.1767 19.4312H18.3767C18.3767 19.0735 18.0883 18.7825 17.7313 18.7825V18.9825ZM18.1767 19.4312C18.1767 19.6796 17.9767 19.88 17.7313 19.88V20.08C18.0883 20.08 18.3767 19.7889 18.3767 19.4312H18.1767Z" fill="#8FA4B5"/>
</svg>

<svg width="22" height="23" viewBox="0 0 22 23" fill="none" xmlns="http://www.w3.org/2000/svg"><path fill-rule="evenodd" clip-rule="evenodd" d="M1.545 20.599a.551.551 0 01-.386-.937l8.876-8.877L7.94 8.678l-.319.32a.543.543 0 01-.77 0 .551.551 0 010-.776l.318-.32L5.83 6.555a.551.551 0 010-.776l4.59-4.618a.543.543 0 01.77 0l1.339 1.346.319-.32a.543.543 0 01.77 0 .551.551 0 010 .776l-.318.32 4.96 4.992.32-.321a.543.543 0 01.77 0 .551.551 0 010 .776l-.318.32 1.338 1.347a.55.55 0 010 .777l-4.59 4.618a.543.543 0 01-.77 0l-1.34-1.347-.318.32a.543.543 0 01-.771 0 .551.551 0 010-.775l.318-.32-2.094-2.109-8.875 8.877c.71-.714-.246.16-.386.16zm12.898-6.93l.953.96 3.818-3.843-.952-.959-3.82 3.842zm-3.246-3.266l2.475 2.49L17.49 9.05 12.53 4.06 8.71 7.901l2.475 2.49.006.006.005.006zm-4.21-4.236l.953.96 3.819-3.843-.953-.959-3.819 3.842zm13.468 16.21H8.352a.547.547 0 01-.545-.549c0-.303.244-.548.545-.548h12.103c.3 0 .545.245.545.548a.547.547 0 01-.545.55zM17.73 19.98h-6.656a.547.547 0 01-.545-.549c0-.303.244-.549.545-.549h6.656c.301 0 .546.246.546.55a.547.547 0 01-.546.548z" fill="#8FA4B5"/><path d="M1.16 20.438l-.071.07.07-.07zm0-.776l-.07-.07h-.001l.07.07zm8.875-8.877l.07.071a.1.1 0 000-.141l-.07.07zM7.94 8.678l.071-.07a.1.1 0 00-.142 0l.071.07zm-.319.32l.071.071-.07-.07zm-.77 0l-.072.071.071-.07zm0-.776l.07.07-.07-.07zm.318-.32l.07.07a.1.1 0 000-.14l-.07.07zM5.83 6.555l.07-.07-.07.07zm0-.776l.07.07-.07-.07zm4.59-4.618l-.072-.07.071.07zm.77 0l.071-.07-.07.07zm1.339 1.346l-.071.07a.1.1 0 00.142 0l-.071-.07zm.319-.32l-.071-.07.07.07zm.77 0l.072-.07-.071.07zm0 .776l.072.07-.071-.07zm-.318.32l-.07-.07a.1.1 0 000 .14l.07-.07zm4.96 4.992l-.07.07a.1.1 0 00.142 0l-.071-.07zm.32-.321l-.072-.07.071.07zm.77 0l.071-.07-.07.07zm0 .776l.071.07-.07-.07zm-.318.32l-.071-.07a.1.1 0 000 .141l.07-.07zm1.338 1.347l.071-.07-.07.07zm0 .777l.071.07-.07-.07zm-4.59 4.618l.071.07-.07-.07zm-.77 0l-.072.07.071-.07zm-1.34-1.347l.072-.07a.1.1 0 00-.142 0l.07.07zm-.318.32l.071.071-.07-.07zm-.771 0l-.071.071.07-.07zm0-.775l-.071-.07.07.07zm.318-.32l.071.07a.1.1 0 000-.141l-.07.07zm-2.094-2.109l.07-.07a.1.1 0 00-.14 0l.07.07zM1.93 20.438l-.07-.07a.1.1 0 00.14.14l-.07-.07zm12.512-6.769l-.071-.07a.1.1 0 000 .14l.07-.07zm.953.96l-.071.07a.1.1 0 00.142 0l-.071-.07zm3.818-3.843l.071.07a.1.1 0 000-.14l-.07.07zm-.952-.959l.07-.07a.1.1 0 00-.141 0l.07.07zm-7.065.576l-.07.07.07-.07zm2.475 2.49l-.071.07a.1.1 0 00.142 0l-.071-.07zM17.49 9.05l.071.07a.1.1 0 000-.14l-.07.07zM12.53 4.06l.07-.07a.1.1 0 00-.141 0l.07.07zM8.71 7.901l-.07-.07a.1.1 0 000 .14l.07-.07zm2.475 2.49l-.071.07.001.002.07-.072zM6.987 6.167l-.07-.07a.1.1 0 000 .14l.07-.07zm.953.96l-.07.07a.1.1 0 00.141 0l-.07-.07zm3.819-3.843l.07.07a.1.1 0 000-.14l-.07.07zm-.953-.959l.07-.07a.1.1 0 00-.141 0l.071.07zm-9.26 18.174a.442.442 0 01-.315-.131l-.142.14c.126.127.291.19.456.19v-.2zm-.315-.131a.451.451 0 010-.636l-.142-.14a.651.651 0 000 .917l.142-.142zm0-.635l8.874-8.877-.141-.141-8.875 8.876.141.142zm8.874-9.018L8.011 8.607l-.142.141 2.095 2.108.141-.141zM7.87 8.607l-.318.321.141.141.319-.32-.142-.142zm-.318.321a.443.443 0 01-.63 0l-.142.141a.643.643 0 00.913 0l-.141-.141zm-.63 0a.451.451 0 010-.635l-.142-.141a.651.651 0 000 .917l.142-.141zm0-.635l.319-.32-.142-.142-.319.32.142.142zm.319-.462L5.9 6.485l-.141.14 1.338 1.347.142-.14zM5.9 6.485a.451.451 0 010-.635l-.141-.141a.651.651 0 000 .917l.141-.141zm0-.635l4.59-4.619-.142-.14-4.59 4.618.142.14zm4.59-4.619a.443.443 0 01.63 0l.141-.14a.643.643 0 00-.913 0l.142.14zm.63 0l1.338 1.347.142-.141-1.339-1.347-.141.141zm1.48 1.347l.318-.32-.141-.142-.319.32.142.142zm.318-.32a.443.443 0 01.63 0l.142-.142a.643.643 0 00-.913 0l.141.141zm.63 0a.451.451 0 010 .634l.142.141a.651.651 0 000-.917l-.142.141zm0 .634l-.319.32.142.142.319-.32-.142-.142zm-.319.462l4.96 4.991.142-.14-4.96-4.992-.142.14zm5.102 4.991l.32-.32-.143-.141-.318.32.142.141zm.32-.32a.443.443 0 01.629 0l.141-.141a.643.643 0 00-.913 0l.142.14zm.628 0a.451.451 0 010 .635l.142.14a.651.651 0 000-.916l-.142.14zm0 .635l-.318.32.142.141.318-.32-.142-.141zm-.318.461l1.338 1.347.142-.141-1.338-1.347-.142.141zm1.338 1.347a.45.45 0 01.131.317h.2a.65.65 0 00-.189-.458l-.142.14zm.131.317a.45.45 0 01-.13.318l.141.14a.65.65 0 00.189-.458h-.2zm-.13.318l-4.59 4.618.141.141 4.59-4.618-.142-.141zm-4.59 4.618a.443.443 0 01-.63 0l-.142.141c.252.254.661.254.913 0l-.142-.14zm-.63 0l-1.338-1.346-.142.14 1.338 1.347.142-.14zm-1.48-1.346l-.319.32.142.141.319-.32-.142-.141zm-.319.32a.443.443 0 01-.63 0l-.141.141a.643.643 0 00.913 0l-.142-.14zm-.63 0a.451.451 0 010-.635l-.141-.14a.651.651 0 000 .916l.142-.14zm0-.635l.32-.32-.142-.141-.32.32.143.141zm.32-.461l-2.095-2.108-.142.14 2.095 2.109.141-.141zm-2.237-2.108L1.86 20.367l.142.142 8.875-8.877-.142-.141zm-8.733 9.018a9.921 9.921 0 00.246-.257.407.407 0 00.034-.05.101.101 0 00-.047-.134c-.032-.015-.06-.01-.067-.008a.115.115 0 00-.023.007.273.273 0 00-.044.026 2.837 2.837 0 00-.105.078c-.085.066-.194.152-.29.221a1.76 1.76 0 01-.165.105c-.012.005-.008.002.004.002v.2c.03 0 .058-.01.075-.018a.543.543 0 00.062-.032c.042-.025.091-.059.14-.095.1-.072.213-.16.296-.224a2.59 2.59 0 01.096-.073l.01-.006-.017.005c-.004 0-.031.006-.061-.009a.099.099 0 01-.055-.088c0-.02.006-.034.007-.037l.005-.01a9.882 9.882 0 01-.243.255l.142.142zm12.37-6.77l.953.96.142-.141-.953-.96-.142.142zm1.095.96l3.818-3.843-.142-.14-3.818 3.842.142.14zm3.818-3.984l-.953-.958-.141.14.952.96.142-.142zm-1.094-.958l-3.82 3.842.143.14 3.818-3.841-.141-.141zm-7.065.716l2.475 2.49.142-.14-2.475-2.49-.142.14zm2.617 2.49l3.818-3.842-.142-.141-3.818 3.842.142.141zM17.56 8.98l-4.96-4.991-.142.14 4.96 4.992.142-.141zM12.46 3.989L8.64 7.83l.142.14 3.819-3.842-.142-.14zM8.64 7.972l2.475 2.49.142-.141-2.475-2.49-.142.14zm2.476 2.491a.208.208 0 01.005.004l.141-.14-.007-.007-.139.143zm.005.004l.001.002.004.004.142-.14-.002-.002-.004-.005-.141.141zm-4.205-4.23l.953.96.142-.141-.953-.959-.142.14zm1.095.96l3.819-3.843-.142-.14-3.819 3.842.142.14zm3.819-3.984l-.953-.958-.142.14.953.96.142-.142zm-1.095-.958L6.916 6.097l.142.14 3.819-3.841-.142-.141zm9.72 20.022H8.352v.2h12.103v-.2zm-12.103 0a.447.447 0 01-.445-.449h-.2c0 .358.288.65.645.65v-.2zm-.445-.449c0-.248.2-.448.445-.448v-.2a.647.647 0 00-.645.648h.2zm.445-.448h12.103v-.2H8.352v.2zm12.103 0c.245 0 .445.2.445.448h.2a.647.647 0 00-.645-.648v.2zm.445.448c0 .249-.2.45-.445.45v.2a.647.647 0 00.645-.65h-.2zm-3.169-1.948h-6.656v.2h6.656v-.2zm-6.656 0a.447.447 0 01-.445-.449h-.2c0 .358.288.649.645.649v-.2zm-.445-.449c0-.248.2-.448.445-.448v-.2a.647.647 0 00-.645.648h.2zm.445-.448h6.656v-.2h-6.656v.2zm6.656 0c.246 0 .446.2.446.448h.2a.647.647 0 00-.646-.649v.2zm.446.448c0 .249-.2.449-.446.449v.2a.647.647 0 00.646-.649h-.2z" fill="#8FA4B5"/></svg>
